images/smile.svg

<?xml version="1.0" encoding="UTF-8" standalone="no"?>
<svg width="379px" height="395px" viewBox="0 0 379 395" version="1.1" xmlns="http://www.w3.org/2000/svg" xmlns:xlink="http://www.w3.org/1999/xlink">
    <!-- Generator: Sketch 39.1 (31720) - http://www.bohemiancoding.com/sketch -->
    <title>смайл</title>
    <desc>Created with Sketch.</desc>
    <defs></defs>
    <g id="Page-1" stroke="none" stroke-width="1" fill="none" fill-rule="evenodd">
        <g id="смайл" transform="translate(0.000000, 1.000000)">
            <ellipse id="Oval" stroke="#FFFFFF" fill="#000000" cx="189.5" cy="218.5" rx="172.5" ry="174.5"></ellipse>
            <path d="M39.3726251,239.234953 C40.6722213,248.97092 2.21255295,258.262089 5.22881498,267.329819 C7.33793741,273.670432 1.539669,300.837396 11.2188748,306.803314 C20.2180215,312.350068 34.57496,326.100963 47.2121939,325.724854 C58.512261,325.388541 68.4438456,310.903366 71.8347302,315.132041 C99.6552461,349.826203 142.138162,372 189.740688,372 C243.367299,372 290.49654,343.858919 317.484892,301.378463 C318.712177,299.446679 301.456334,322.384888 311.881287,322.745911 C324.845179,323.194858 365.861816,301.378464 365.861816,301.378464 C365.861816,301.378464 370.775762,275.661226 363.711273,262.200348 C359.736153,254.62604 356.77141,244.807957 351.031342,241.889801 C347.312489,239.999198 339.263791,244.981004 339.730977,241.889806 C340.883583,234.263429 341.481375,226.452335 341.481375,218.5 C341.481375,133.724291 273.544755,65 189.740688,65 C105.93662,65 38,133.724291 38,218.5 C38,225.532116 38.4674478,232.453788 39.3726251,239.234953 Z" id="Oval" stroke="#FEF200" fill="#FEF200"></path>
            <ellipse id="Oval-2" stroke="#000000" fill="#000000" cx="252" cy="178" rx="25" ry="40"></ellipse>
            <ellipse id="Oval-2" stroke="#000000" fill="#000000" cx="132" cy="179" rx="25" ry="40"></ellipse>
            <path d="M171.109938,254.99598 C174.521555,250.075087 173.374037,244.620552 171.8316,244.042957 C170.289164,243.465363 163.610323,245.989172 160.198706,250.910065 C156.787089,255.830958 156.749236,260.841609 159.477044,261.863088 C162.204852,262.884566 167.698322,259.916873 171.109938,254.99598 Z" id="Oval-3" stroke="#000000" fill="#000000"></path>
            <path d="M156.2263,29.4501013 C152.643004,22.4492136 147.099119,16.1921478 148.124416,15.1474674 C149.149713,14.102787 156.430285,18.7217451 164.269523,25.4162476 C176.00812,35.4407016 189.570887,49.2179217 189.570887,49.2179217 L162.973365,48.0181736 C162.973365,48.0181736 160.673046,38.1379607 156.2263,29.4501013 Z" id="Triangle" stroke="#000000" fill="#000000"></path>
            <path d="M188.511514,26.377016 C188.634434,14.5687096 185.490515,0.517316129 185.977347,0.0212802325 C186.438896,-0.448994573 191.256887,6.91599796 195.224912,18.067522 C200.071558,31.6882773 204.182739,49.65635 204.182739,49.65635 L185,50.3526363 C185,50.3526363 188.375557,39.437689 188.511514,26.377016 Z" id="Triangle" stroke="#000000" fill="#000000"></path>
            <path d="M229.228348,262.375428 C226.333652,263.107957 221.455629,259.607254 219.009072,254.385299 C216.562515,249.163344 218.731777,243.879264 220.368581,243.465057 C222.005384,243.050849 228.141299,246.233231 230.587857,251.455186 C233.034414,256.677141 232.123044,261.6429 229.228348,262.375428" id="Oval-3" stroke="#000000" fill="#000000"></path>
            <path d="M96.5694809,361.58947 C101.710279,360.106947 112.060394,355.147537 112.060394,355.147537 C112.060394,355.147537 122.691746,350.155163 127.924606,348.412315 C134.20772,346.319673 147.882317,343.641068 147.882317,343.641068 C147.882317,343.641068 174.890365,338.569176 186.437469,338.569176 C194.623536,338.569176 211.958633,339.39505 222.174515,341.518059 C224.024043,341.902418 232.858038,343.571713 241.699219,346.187271 C253.102967,349.560935 264.827469,354.004059 264.827469,354.004059 C264.827469,354.004059 271.15045,356.15649 277.356674,358.75103 C285.193312,362.027172 294.139742,365.829587 304.369873,364.903763 C309.810506,364.411387 316.663633,362.208627 321.460938,358.75103 C324.737421,356.389546 326.685486,354.004059 328.13678,351.575974 C329.552342,349.207669 332.431281,344.063492 331.401611,338.569176 C328.970717,325.597923 318.996506,308.816521 318.967842,308.636525 C317.827469,301.475371 317.443713,299.910069 317.982887,293.78455 C318.522061,287.659031 319.548714,282.335156 319.548714,282.335156 C319.548714,282.335156 323.437603,283.375883 325.153511,284.238947 C327.091015,285.213469 330.508949,287.847914 330.508949,287.847914 C330.508949,287.847914 344.881813,275.014032 344.881813,273.17506 C344.881813,270.525189 313.163918,250.849234 289.909157,273.175061 C288.130625,274.882547 298.898227,282.200725 298.507545,284.238947 C296.566444,294.365858 298.585068,307.564271 299.606636,315.281369 C300.628204,322.998466 304.103432,326.490517 307.287086,331.905686 C310.470741,337.320854 312.09253,342.294049 307.287086,343.641068 C305.282375,344.203011 297.995858,346.190854 289.047646,342.7267 C277.746999,338.35184 258.45995,330.496133 247.030556,326.768067 C235.335594,322.953377 209.096809,318.965496 189.348366,318.965496 C169.599922,318.965496 156.529428,320.788718 148.730461,322.098286 C125.327248,326.02805 91.9882278,344.312653 79.5080872,344.981026 C78.1706983,345.05265 72.7187367,344.563013 70.5670471,342.7267 C68.2668967,340.763686 69.306427,337.442894 69.306427,337.442894 C69.306427,337.442894 76.3602829,327.915856 80.3131409,313.601582 C82.1137595,307.081098 82.1479034,293.78455 82.1479034,293.78455 L82.1479034,285.665125 C82.1479034,285.665125 91.8228455,277.037368 93.201416,273.175061 C93.7578169,271.616206 83.8728256,260.776621 64.7769318,262.114001 C45.6810379,263.451382 38,272.26392 38,273.836518 C38,275.409115 51.8768005,287.847914 51.8768005,287.847914 C51.8768005,287.847914 55.2422401,285.170115 57.119606,284.238947 C58.2995547,283.653696 61.0487442,283.298655 61.0487442,283.298655 C61.0487442,283.298655 62.7829208,299.722816 61.9158325,305.845772 C61.0487442,311.968727 49.5504524,326.052065 48.8881302,339.235847 C48.225808,352.41963 61.0487442,360.568405 61.0487442,360.568405 C61.0487442,360.568405 64.4250503,362.644352 68.3738918,363.661667 C72.6832248,364.771853 77.5966263,364.903763 77.5966263,364.903763 C77.5966263,364.903763 87.5012028,364.204614 96.5694809,361.58947 Z" id="Oval-4" stroke="#000000" fill="#000000"></path>
            <path d="M268,259.021313 C268,259.021313 280.419176,260.601486 293.061792,255.978245 C305.704409,251.355003 317.327324,235.761906 317.327324,235.761906 C317.327324,235.761906 359.268578,244.588654 357.782227,283.627571 C357.475153,291.692826 349.75386,303.480349 341.406448,308.606651 C331.268826,314.832356 320.242004,312.259567 320.242004,312.259567 C320.242004,312.259567 321.149968,331.485364 324.854134,331.690758 C357.782227,333.516602 378.197323,305.623021 378.197323,279.389495 C378.197323,265.49702 374.650578,253.437621 355.488507,233.327451 C336.326436,213.217281 305.693299,215.043121 305.693299,215.043121 C305.693299,215.043121 297.488018,229.180593 291.528531,233.327452 C285.672932,237.40202 270.248043,239.7074 270.248043,239.7074 L268,259.021313 Z" id="Oval-5" stroke="#000000" fill="#000000"></path>
            <path d="M0.802676693,259.021313 C0.802676693,259.021313 13.2218528,260.601486 25.8644691,255.978245 C38.5070853,251.355003 50.1300011,235.761906 50.1300011,235.761906 C50.1300011,235.761906 92.0712543,244.588654 90.5849033,283.627571 C90.2778302,291.692826 82.5565365,303.480349 74.2091251,308.606651 C64.0715027,314.832356 53.0446811,312.259567 53.0446811,312.259567 C53.0446811,312.259567 53.9526449,331.485364 57.6568103,331.690758 C90.5849033,333.516602 111,305.623021 111,279.389495 C111,265.49702 107.453255,253.437621 88.2911835,233.327451 C69.1291122,213.217281 38.495976,215.043121 38.495976,215.043121 C38.495976,215.043121 30.2906946,229.180593 24.3312073,233.327452 C18.4756092,237.40202 3.05071982,239.7074 3.05071982,239.7074 L0.802676693,259.021313 Z" id="Oval-5" stroke="#000000" fill="#000000" transform="translate(55.901338, 273.387910) scale(-1, 1) translate(-55.901338, -273.387910) "></path>
        </g>
    </g>
</svg>

<svg width="379" height="395" viewBox="0 0 379 395" xmlns="http://www.w3.org/2000/svg"><title>смайл</title><g transform="translate(0 1)" fill="none" fill-rule="evenodd"><ellipse stroke="#FFF" fill="#000" cx="189.5" cy="218.5" rx="172.5" ry="174.5"/><path d="M39.373 239.235c1.3 9.736-37.16 19.027-34.144 28.095 2.109 6.34-3.69 33.507 5.99 39.473 8.999 5.547 23.356 19.298 35.993 18.922 11.3-.336 21.232-14.822 24.623-10.593C99.655 349.826 142.138 372 189.74 372c53.626 0 100.756-28.141 127.744-70.622 1.227-1.931-16.029 21.007-5.604 21.368 12.964.449 53.98-21.368 53.98-21.368s4.915-25.717-2.15-39.178c-3.975-7.574-6.94-17.392-12.68-20.31-3.719-1.89-11.767 3.091-11.3 0a156.452 156.452 0 0 0 1.75-23.39c0-84.776-67.936-153.5-151.74-153.5S38 133.724 38 218.5c0 7.032.467 13.954 1.373 20.735z" stroke="#FEF200" fill="#FEF200"/><ellipse stroke="#000" fill="#000" cx="252" cy="178" rx="25" ry="40"/><ellipse stroke="#000" fill="#000" cx="132" cy="179" rx="25" ry="40"/><path d="M171.11 254.996c3.412-4.92 2.264-10.375.722-10.953-1.543-.578-8.222 1.946-11.633 6.867-3.412 4.921-3.45 9.932-.722 10.953 2.728 1.022 8.221-1.946 11.633-6.867zM156.226 29.45c-3.583-7-9.127-13.258-8.102-14.303 1.026-1.044 8.306 3.575 16.146 10.27 11.738 10.024 25.3 23.8 25.3 23.8l-26.597-1.199s-2.3-9.88-6.747-18.568z" stroke="#000" fill="#000"/><path d="M188.512 26.377c.122-11.808-3.021-25.86-2.535-26.356.462-.47 5.28 6.895 9.248 18.047 4.847 13.62 8.958 31.588 8.958 31.588L185 50.353s3.376-10.915 3.512-23.976zM229.228 262.375c-2.894.733-7.772-2.768-10.219-7.99-2.446-5.222-.277-10.506 1.36-10.92 1.636-.414 7.772 2.768 10.219 7.99 2.446 5.222 1.535 10.188-1.36 10.92" stroke="#000" fill="#000"/><path d="M96.57 361.59c5.14-1.483 15.49-6.442 15.49-6.442s10.632-4.993 15.865-6.736c6.283-2.092 19.957-4.77 19.957-4.77s27.008-5.073 38.555-5.073c8.187 0 25.522.826 35.738 2.95 1.849.383 10.683 2.053 19.524 4.668 11.404 3.374 23.128 7.817 23.128 7.817s6.323 2.152 12.53 4.747c7.836 3.276 16.783 7.079 27.013 6.153 5.44-.493 12.294-2.695 17.09-6.153 3.277-2.361 5.225-4.747 6.677-7.175 1.415-2.368 4.294-7.513 3.265-13.007-2.431-12.971-12.405-29.752-12.434-29.932-1.14-7.162-1.524-8.727-.985-14.852.54-6.126 1.566-11.45 1.566-11.45s3.889 1.04 5.605 1.904c1.937.974 5.355 3.609 5.355 3.609s14.373-12.834 14.373-14.673c0-2.65-31.718-22.326-54.973 0-1.778 1.708 8.99 9.026 8.599 11.064-1.942 10.127.077 23.325 1.099 31.042 1.021 7.717 4.496 11.21 7.68 16.625 3.184 5.415 4.806 10.388 0 11.735-2.005.562-9.291 2.55-18.24-.914-11.3-4.375-30.587-12.23-42.016-15.959-11.695-3.815-37.934-7.803-57.683-7.803-19.748 0-32.819 1.824-40.618 3.133-23.403 3.93-56.742 22.215-69.222 22.883-1.337.072-6.79-.418-8.941-2.254-2.3-1.963-1.26-5.284-1.26-5.284s7.053-9.527 11.006-23.841c1.8-6.52 1.835-19.817 1.835-19.817v-8.12s9.675-8.628 11.053-12.49c.557-1.559-9.328-12.398-28.424-11.061C45.68 263.451 38 272.264 38 273.837c0 1.572 13.877 14.01 13.877 14.01s3.365-2.677 5.243-3.608c1.18-.585 3.929-.94 3.929-.94s1.734 16.424.867 22.547c-.867 6.123-12.366 20.206-13.028 33.39-.662 13.184 12.16 21.332 12.16 21.332s3.377 2.076 7.326 3.094c4.31 1.11 9.223 1.242 9.223 1.242s9.904-.7 18.972-3.315z" stroke="#000" fill="#000"/><path d="M268 259.021s12.42 1.58 25.062-3.043c12.642-4.623 24.265-20.216 24.265-20.216s41.942 8.827 40.455 47.866c-.307 8.065-8.028 19.852-16.376 24.979-10.137 6.225-21.164 3.653-21.164 3.653s.908 19.225 4.612 19.43c32.928 1.827 53.343-26.067 53.343-52.3 0-13.893-3.546-25.952-22.708-46.063-19.163-20.11-49.796-18.284-49.796-18.284s-8.205 14.138-14.164 18.284c-5.856 4.075-21.281 6.38-21.281 6.38L268 259.021zM111 259.021s-12.42 1.58-25.062-3.043c-12.642-4.623-24.265-20.216-24.265-20.216s-41.942 8.827-40.455 47.866c.307 8.065 8.028 19.852 16.376 24.979 10.137 6.225 21.164 3.653 21.164 3.653s-.908 19.225-4.612 19.43C21.218 333.518.803 305.624.803 279.39c0-13.893 3.546-25.952 22.708-46.063 19.163-20.11 49.796-18.284 49.796-18.284s8.205 14.138 14.164 18.284c5.856 4.075 21.281 6.38 21.281 6.38L111 259.021z" stroke="#000" fill="#000"/></g></svg>
